X: 37294
T: Skolion Of Seikilos
R: jig
M: 6/8
K: Dmajor
A e2 e3|cde d3|c2 d edc|B A2 B G2|
A ced cdc|A2 B G2 A|cBd ec2|A A3/2 AFE2||

